images/blogger.svg

<?xml version="1.0" encoding="utf-8"?>
<!-- Generator: Adobe Illustrator 23.0.1, SVG Export Plug-In . SVG Version: 6.00 Build 0)  -->
<svg version="1.1" id="Capa_1" xmlns="http://www.w3.org/2000/svg" xmlns:xlink="http://www.w3.org/1999/xlink" x="0px" y="0px"
	 viewBox="0 0 500 500" style="enable-background:new 0 0 500 500;" xml:space="preserve">
<style type="text/css">
	.st0{fill:none;stroke:#F7F2F2;stroke-width:2;stroke-miterlimit:10;}
</style>
<path class="st0" d="M410,450H90c-22.1,0-40-17.9-40-40V90c0-22.1,17.9-40,40-40h320c22.1,0,40,17.9,40,40v320
	C450,432.1,432.1,450,410,450z"/>
<path class="st0" d="M200,220h50c11,0,20-9,20-20s-9-20-20-20h-50c-11,0-20,9-20,20S189,220,200,220z"/>
<path class="st0" d="M300,280H200c-11,0-20,9-20,20s9,20,20,20h100c11,0,20-9,20-20S311,280,300,280z"/>
<path class="st0" d="M360,220h-10c-11,0-20-9-20-20c0-44-36-80-80-80h-50c-44,0-80,36-80,80v50v50c0,44,36,80,80,80h100
	c44,0,80-36,80-80v-60C380,229,371,220,360,220z"/>
</svg>

<svg id="Capa_1" data-name="Capa 1" xmlns="http://www.w3.org/2000/svg" viewBox="0 0 402 402"><defs><style>.cls-1{fill:none;stroke:#fff;stroke-miterlimit:10;stroke-width:2px;}</style></defs><title>blogger</title><path class="cls-1" d="M410,450H90a40,40,0,0,1-40-40V90A40,40,0,0,1,90,50H410a40,40,0,0,1,40,40V410A40,40,0,0,1,410,450Z" transform="translate(-49 -49)"/><path class="cls-1" d="M200,220h50a20,20,0,0,0,0-40H200a20,20,0,0,0,0,40Z" transform="translate(-49 -49)"/><path class="cls-1" d="M300,280H200a20,20,0,0,0,0,40H300a20,20,0,0,0,0-40Z" transform="translate(-49 -49)"/><path class="cls-1" d="M360,220H350a20.06,20.06,0,0,1-20-20,80.24,80.24,0,0,0-80-80H200a80.24,80.24,0,0,0-80,80V300a80.24,80.24,0,0,0,80,80H300a80.24,80.24,0,0,0,80-80V240A20.06,20.06,0,0,0,360,220Z" transform="translate(-49 -49)"/></svg>
